public/assets/images/icons/red/visibility-invisible/folder-lock-empty.svg

<svg width="16" height="16" xmlns="http://www.w3.org/2000/svg" viewBox="0 0 16 16" shape-rendering="geometricPrecision" fill="#cb1800"><defs><mask id="a"><rect fill="#fff" width="100%" height="100%"/><path d="M12.997.858a4.809 4.809 0 0 0-4.253 2.563 4.81 4.81 0 0 0 8.506 0A4.812 4.812 0 0 0 12.997.858z" fill="#000"/></mask></defs><path d="M12.997 1.611a3.394 3.394 0 0 0-3.003 1.81 3.397 3.397 0 0 0 6.006 0 3.398 3.398 0 0 0-3.003-1.81zm-.001 3.396a1.587 1.587 0 1 1 0-3.174 1.587 1.587 0 0 1 0 3.174z"/><g mask="url(#a)"><path d="M7.394 4.755l-.816-1.923h-3.78l-.816 1.923H.861V14h14.278V4.755H7.394zm6.648 8.174H1.916v-7h12.125v7z"/><path d="M7.078 8.202a.932.932 0 1 1 1.863 0v.463h.57v-.463a1.502 1.502 0 1 0-3.003 0v.463h.57v-.463zm-1.057.859v2.904H10V9.061H6.021zm2.34 1.935a.35.35 0 0 1-.7 0v-.966a.35.35 0 0 1 .701 0v.966z"/></g></svg>

<?xml version="1.0"?><!DOCTYPE svg PUBLIC "-//W3C//DTD SVG 1.1//EN" "http://www.w3.org/Graphics/SVG/1.1/DTD/svg11.dtd"><svg width="16px" height="16px" xmlns="http://www.w3.org/2000/svg" viewBox="0 0 16 16" shape-rendering="geometricPrecision" fill="#cb1800"><defs><mask id="visibility-invisible-path"><rect fill="#fff" width="100%" height="100%"/><path d="M12.997,0.858c-1.845,0-3.446,1.039-4.253,2.563c0.808,1.523,2.408,2.562,4.253,2.562 c1.844,0,3.444-1.039,4.253-2.562C16.441,1.897,14.841,0.858,12.997,0.858z" fill="#000"/></mask></defs><g id="visibility-invisible" display="inline" fill="#cb1800"><g><g><path d="M12.997,1.611c-1.303,0-2.433,0.733-3.003,1.81c0.57,1.075,1.7,1.809,3.003,1.809c1.302,0,2.432-0.733,3.003-1.809 C15.429,2.345,14.299,1.611,12.997,1.611z M12.996,5.007c-0.876,0-1.587-0.71-1.587-1.586c0-0.877,0.711-1.588,1.587-1.588 c0.877,0,1.588,0.711,1.588,1.588C14.584,4.297,13.873,5.007,12.996,5.007z"/></g></g></g><g mask="url(#visibility-invisible-path)"><path d="M7.394,4.755L6.578,2.832H2.798L1.982,4.755H0.861V14h14.278V4.755H7.394z M14.042,12.929H1.916v-7 h12.125V12.929z"/><g><path d="M7.078,8.202c0-0.515,0.417-0.932,0.932-0.932c0.514,0,0.931,0.416,0.931,0.932v0.463h0.57V8.202 c0-0.829-0.672-1.502-1.501-1.502c-0.829,0-1.502,0.672-1.502,1.502v0.463h0.57V8.202z M6.021,9.061v2.904H10V9.061H6.021z M8.361,10.996c0,0.193-0.156,0.349-0.349,0.349c-0.194,0-0.351-0.157-0.351-0.349V10.03c0-0.192,0.157-0.349,0.35-0.349 c0.194,0,0.351,0.157,0.351,0.349V10.996z"/></g></g></svg>
